X: 39806
T: Theoretical Chemistry
R: jig
M: 6/8
K: Aminor
E|:A2 A/B/ c>BA|e2a ^g3|e2g f2d|c2e d>cB|
A2 A/B/ c>BA|e2a b2B|c>de c2^A|1 B>AA A2E:|2 B>AA A2 A/B/||
|:c3 dcB|A3 BAG|F3 GFE|DFA ^G2 A/B/|
cec BeB|AeA ^G2E|A>ce d2B|1 c>AA A2 A/B/:|2 c>AA A3||

